<?xml version="1.0" encoding="UTF-8"?>
<map version="1.10" tiledversion="1.12.2-2-geb83ddb9" orientation="orthogonal" renderorder="right-down" width="10" height="10" tilewidth="128" tileheight="128" infinite="0" nextlayerid="4" nextobjectid="10">
 <tileset firstgid="1" source="tiles.tsx"/>
 <tileset firstgid="157" source="images.tsx"/>
 <layer id="1" name="ground" width="10" height="10">
  <data encoding="csv">
122,122,122,122,122,122,122,122,122,122,
122,122,122,122,122,122,122,122,122,122,
122,122,122,122,122,122,122,122,122,122,
122,122,122,122,122,122,122,122,122,122,
122,122,122,122,122,122,122,122,122,122,
122,122,122,122,122,122,122,122,122,122,
122,122,122,122,122,122,122,122,122,122,
122,122,122,122,122,122,122,122,122,122,
122,122,122,122,122,122,122,122,122,122,
122,122,122,122,122,122,122,122,122,122
</data>
 </layer>
 <objectgroup id="3" name="enemy">
  <object id="9" gid="171" x="22.6209" y="1250.81" width="99" height="77"/>
 </objectgroup>
 <objectgroup id="2" name="landscape">
  <object id="1" gid="167" x="533.565" y="742.77" width="98" height="107"/>
  <object id="2" gid="167" x="264.689" y="590.41" width="98" height="107"/>
  <object id="3" gid="167" x="560.453" y="411.16" width="98" height="107"/>
  <object id="4" gid="165" x="1110.16" y="1000.67" width="98" height="98"/>
  <object id="5" gid="165" x="653.066" y="1093.29" width="98" height="98"/>
  <object id="6" gid="165" x="282.614" y="1000.67" width="98" height="98"/>
  <object id="7" gid="169" x="1070.32" y="693" width="101" height="115"/>
  <object id="8" gid="168" x="849.241" y="846.4" width="100" height="136"/>
 </objectgroup>
</map>
